svgs/solid/chair-office.svg

<svg xmlns="http://www.w3.org/2000/svg" viewBox="0 0 448 512"><!-- Font Awesome Pro 6.0.0-alpha2 by @fontawesome - https://fontawesome.com License - https://fontawesome.com/license (Commercial License) --><path d="M64 224V160C64 142.375 49.625 128 32 128S0 142.375 0 160V224C0 241.625 14.375 256 32 256S64 241.625 64 224ZM352 64C352 28.625 323.375 0 288 0H160C124.625 0 96 28.625 96 64V256H352V64ZM416 128C398.375 128 384 142.375 384 160V224C384 241.625 398.375 256 416 256S448 241.625 448 224V160C448 142.375 433.625 128 416 128ZM403.625 309.875C399.375 296.75 387.125 288 373.25 288H74.75C60.875 288 48.75 296.75 44.375 309.875L33.625 341.875C26.75 362.625 42.125 384 64 384H192V451.375C163.75 457.375 141 471 130.125 488.625C123.75 498.875 132.5 512 145.125 512H302.875C315.5 512 324.25 498.875 317.875 488.625C307 471 284.25 457.375 256 451.375V384H384C405.75 384 421.25 362.625 414.375 341.875L403.625 309.875Z"/></svg>

<svg xmlns="http://www.w3.org/2000/svg" viewBox="0 0 448 512"><!-- Font Awesome Pro 5.15.1 by @fontawesome - https://fontawesome.com License - https://fontawesome.com/license (Commercial License) --><path d="M64 224v-64c0-17.67-14.33-32-32-32S0 142.33 0 160v64c0 17.67 14.33 32 32 32s32-14.33 32-32zm352-96c-17.67 0-32 14.33-32 32v64c0 17.67 14.33 32 32 32s32-14.33 32-32v-64c0-17.67-14.33-32-32-32zm-64-64c0-35.35-28.65-64-64-64H160c-35.35 0-64 28.65-64 64v192h256V64zm51.67 245.88A31.996 31.996 0 0 0 373.31 288H74.69c-13.77 0-26 8.81-30.36 21.88l-10.67 32C26.76 362.6 42.18 384 64.03 384H192v67.36c-28.27 6.01-50.99 19.69-61.85 37.21-6.41 10.34 2.41 23.43 15.02 23.43h157.66c12.61 0 21.44-13.09 15.02-23.43-10.86-17.52-33.59-31.2-61.85-37.21V384h127.97c21.84 0 37.27-21.4 30.36-42.12l-10.66-32z"/></svg>
